images_elementary_svg/cmd/32/ko/italic.svg

<svg height="32" width="32" xmlns="http://www.w3.org/2000/svg" xmlns:xlink="http://www.w3.org/1999/xlink"><radialGradient id="a" cx="11.680322" cy="15.261165" gradientTransform="matrix(-1.863628 -.00000004 .00000006 -2.5413115 27.125297 50.079055)" gradientUnits="userSpaceOnUse" r="4.455698"><stop offset="0" stop-color="#737373"/><stop offset=".26238" stop-color="#636363"/><stop offset=".704952" stop-color="#4b4b4b"/><stop offset="1" stop-color="#3f3f3f"/></radialGradient><radialGradient id="b" cx="40" cy="43.5" gradientTransform="matrix(1 0 0 .75 -30.637688 9.875001)" gradientUnits="userSpaceOnUse" r="2" xlink:href="#e"/><radialGradient id="c" cx="9" cy="43.5" gradientTransform="matrix(1 0 0 .75 -4 9.875)" gradientUnits="userSpaceOnUse" r="2" xlink:href="#e"/><linearGradient id="d" gradientTransform="matrix(.33531328 0 0 1 3.323434 0)" gradientUnits="userSpaceOnUse" x1="16" x2="16" xlink:href="#f" y1="44" y2="41"/><linearGradient id="e"><stop offset="0"/><stop offset="1" stop-opacity="0"/></linearGradient><linearGradient id="f" gradientTransform="matrix(.33531328 0 0 1 3.323434 0)" gradientUnits="userSpaceOnUse" x1="16" x2="16" y1="44" y2="41"><stop offset="0" stop-opacity="0"/><stop offset=".5"/><stop offset="1" stop-opacity="0"/></linearGradient><g transform="matrix(.80709274 0 0 1.3158295 .964536 -32.896498)"><path d="m9.3623107 41v3h.5c.8310003 0 1.5000013-.669 1.5000013-1.5s-.669001-1.5-1.5000013-1.5z" fill="url(#b)" opacity=".2"/><path d="m4.40625 41c-.7790625 0-1.40625.627187-1.40625 1.40625v.1875c0 .779063.6271875 1.40625 1.40625 1.40625h.59375v-3z" fill="url(#c)" opacity=".2"/><path d="m5 41h4.3623107v3h-4.3623107z" fill="url(#d)" opacity=".2" stroke-width=".579062"/></g><g transform="matrix(.80709274 0 0 1.3158295 16.443747 -28.949009)"><path d="m9.3623107 41v3h.5c.8310003 0 1.5000013-.669 1.5000013-1.5s-.669001-1.5-1.5000013-1.5z" fill="url(#b)" opacity=".2"/><path d="m4.40625 41c-.7790625 0-1.40625.627187-1.40625 1.40625v.1875c0 .779063.6271875 1.40625 1.40625 1.40625h.59375v-3z" fill="url(#c)" opacity=".2"/><path d="m5 41h4.3623107v3h-4.3623107z" fill="url(#f)" opacity=".2" stroke-width=".579062"/></g><path d="m5.5079914 12.317001-.2886338 1.465371h7.4822764c-1.332156 4.729154-4.2184782 7.793102-10.0799642 10.3464l.6882806 1.487575c7.2602496-3.24158 10.3685976-7.548873 11.5231326-13.299346zm13.7878136-2.153652-3.774439 18.117305h1.820613l3.774439-18.117305z" fill="url(#a)" stroke="#000" stroke-opacity=".6" stroke-width=".754888" transform="matrix(1.32470039 0 0 1.3247003 .527073 -10.963391)"/><path d="m26.087891 2.5-5 24h.3125l4.6875-22.5h2.099609l.3125-1.5zm-18.2636722 2.8535156-.3828126 1.9414063h.2949219l.0878907-.4414063h12.0097652c.126115-.4918935.239644-.9911976.341797-1.5zm9.0429692 3.4414063c-1.942552 5.4234761-5.743066 9.1017681-12.867188 12.2050781l.5742188 1.238281c7.3727702-3.330792 11.0595032-7.338092 12.7792972-13.4433591z" fill="#fff" opacity=".2" transform="translate(-.000001)"/></svg>

<?xml version="1.0" encoding="UTF-8" standalone="no"?>
<svg
   xmlns:dc="http://purl.org/dc/elements/1.1/"
   xmlns:cc="http://creativecommons.org/ns#"
   xmlns:rdf="http://www.w3.org/1999/02/22-rdf-syntax-ns#"
   xmlns:svg="http://www.w3.org/2000/svg"
   xmlns="http://www.w3.org/2000/svg"
   xmlns:xlink="http://www.w3.org/1999/xlink"
   xmlns:sodipodi="http://sodipodi.sourceforge.net/DTD/sodipodi-0.dtd"
   xmlns:inkscape="http://www.inkscape.org/namespaces/inkscape"
   height="32"
   width="32"
   version="1.1"
   id="svg41"
   sodipodi:docname="italic.svg"
   inkscape:version="0.92.4 (unknown)"
   inkscape:export-filename="/home/rizmut/Dokumen/Rizmut/Github/libreoffice-style-elementary/images_elementary/cmd/32/ko/italic.png"
   inkscape:export-xdpi="96"
   inkscape:export-ydpi="96">
  <metadata
     id="metadata47">
    <rdf:RDF>
      <cc:Work
         rdf:about="">
        <dc:format>image/svg+xml</dc:format>
        <dc:type
           rdf:resource="http://purl.org/dc/dcmitype/StillImage" />
        <dc:title></dc:title>
      </cc:Work>
    </rdf:RDF>
  </metadata>
  <defs
     id="defs45">
    <radialGradient
       inkscape:collect="always"
       xlink:href="#e"
       id="radialGradient903"
       cx="11.680322"
       cy="15.261165"
       fx="11.680322"
       fy="15.261165"
       r="4.4556975"
       gradientTransform="matrix(-1.863628,-4.4565651e-8,6.077128e-8,-2.5413115,27.125297,50.079055)"
       gradientUnits="userSpaceOnUse" />
    <radialGradient
       inkscape:collect="always"
       xlink:href="#b"
       id="radialGradient846"
       gradientUnits="userSpaceOnUse"
       gradientTransform="matrix(1,0,0,0.75,-30.637688,9.8750008)"
       cx="40"
       cy="43.5"
       r="2" />
    <radialGradient
       inkscape:collect="always"
       xlink:href="#b"
       id="radialGradient848"
       gradientUnits="userSpaceOnUse"
       gradientTransform="matrix(1,0,0,0.75,-4,9.875)"
       cx="9"
       cy="43.5"
       r="2" />
    <linearGradient
       inkscape:collect="always"
       xlink:href="#d"
       id="linearGradient850"
       gradientUnits="userSpaceOnUse"
       gradientTransform="matrix(0.33531328,0,0,1,3.3234336,0)"
       x1="16"
       y1="44"
       x2="16"
       y2="41" />
  </defs>
  <sodipodi:namedview
     pagecolor="#ffffff"
     bordercolor="#666666"
     borderopacity="1"
     objecttolerance="10"
     gridtolerance="10"
     guidetolerance="10"
     inkscape:pageopacity="0"
     inkscape:pageshadow="2"
     inkscape:window-width="1366"
     inkscape:window-height="714"
     id="namedview43"
     showgrid="true"
     inkscape:zoom="10.429825"
     inkscape:cx="16.825958"
     inkscape:cy="18.901391"
     inkscape:window-x="0"
     inkscape:window-y="28"
     inkscape:window-maximized="1"
     inkscape:current-layer="svg41">
    <inkscape:grid
       type="xygrid"
       id="grid854" />
  </sodipodi:namedview>
  <radialGradient
     id="a"
     cx="40"
     cy="43.5"
     gradientTransform="matrix(1,0,0,0.75,-30.637688,9.8750008)"
     gradientUnits="userSpaceOnUse"
     r="2"
     xlink:href="#b" />
  <linearGradient
     id="b">
    <stop
       offset="0"
       id="stop3" />
    <stop
       offset="1"
       stop-opacity="0"
       id="stop5" />
  </linearGradient>
  <radialGradient
     id="c"
     cx="9"
     cy="43.5"
     gradientTransform="matrix(1,0,0,0.75,-4,9.875)"
     gradientUnits="userSpaceOnUse"
     r="2"
     xlink:href="#b" />
  <linearGradient
     id="d"
     gradientUnits="userSpaceOnUse"
     x1="16"
     x2="16"
     y1="44"
     y2="41"
     gradientTransform="matrix(0.33531328,0,0,1,3.3234336,0)">
    <stop
       offset="0"
       stop-opacity="0"
       id="stop9" />
    <stop
       offset=".5"
       id="stop11" />
    <stop
       offset="1"
       stop-opacity="0"
       id="stop13" />
  </linearGradient>
  <radialGradient
     id="e"
     cx="12.279661"
     cy="7.140932"
     gradientTransform="matrix(-3.1675784,0.07135103,-0.0749702,-3.3513607,41.983743,34.643483)"
     gradientUnits="userSpaceOnUse"
     r="5.015671">
    <stop
       offset="0"
       stop-color="#737373"
       id="stop16" />
    <stop
       offset=".26238"
       stop-color="#636363"
       id="stop18" />
    <stop
       offset=".704952"
       stop-color="#4b4b4b"
       id="stop20" />
    <stop
       offset="1"
       stop-color="#3f3f3f"
       id="stop22" />
  </radialGradient>
  <g
     transform="matrix(1.333631 0 0 1.3158295 .527073 -10.963391)"
     id="g39">
    <g
       id="g844"
       transform="matrix(0.60518445,0,0,1,0.32802423,-16.668654)">
      <path
         inkscape:connector-curvature="0"
         style="opacity:0.2;fill:url(#radialGradient846)"
         id="path838"
         d="m 9.3623107,41 v 3 h 0.5 c 0.8310003,0 1.5000013,-0.669 1.5000013,-1.5 0,-0.831 -0.669001,-1.5 -1.5000013,-1.5 z" />
      <path
         inkscape:connector-curvature="0"
         style="opacity:0.2;fill:url(#radialGradient848)"
         id="path840"
         d="M 4.40625,41 C 3.6271875,41 3,41.627187 3,42.40625 v 0.1875 C 3,43.372813 3.6271875,44 4.40625,44 H 5 v -3 z" />
      <path
         sodipodi:nodetypes="ccccc"
         inkscape:connector-curvature="0"
         style="opacity:0.2;fill:url(#linearGradient850);stroke-width:0.5790624"
         id="path842"
         d="m 5,41 h 4.3623107 v 3 H 5 Z" />
    </g>
    <g
       transform="matrix(0.60518445,0,0,1,11.934841,-13.668654)"
       id="g31">
      <path
         d="m 9.3623107,41 v 3 h 0.5 c 0.8310003,0 1.5000013,-0.669 1.5000013,-1.5 0,-0.831 -0.669001,-1.5 -1.5000013,-1.5 z"
         id="path25"
         style="opacity:0.2;fill:url(#a)"
         inkscape:connector-curvature="0" />
      <path
         d="M 4.40625,41 C 3.6271875,41 3,41.627187 3,42.40625 v 0.1875 C 3,43.372813 3.6271875,44 4.40625,44 H 5 v -3 z"
         id="path27"
         style="opacity:0.2;fill:url(#c)"
         inkscape:connector-curvature="0" />
      <path
         d="m 5,41 h 4.3623107 v 3 H 5 Z"
         id="path29"
         style="opacity:0.2;fill:url(#d);stroke-width:0.5790624"
         inkscape:connector-curvature="0"
         sodipodi:nodetypes="ccccc" />
    </g>
    <g
       aria-label="기"
       transform="scale(0.99330354,1.0067416)"
       style="font-style:normal;font-variant:normal;font-weight:normal;font-stretch:normal;font-size:30.19550896px;line-height:1.25;font-family:'Droid Sans';-inkscape-font-specification:'Droid Sans';letter-spacing:0px;word-spacing:0px;fill:url(#radialGradient903);fill-opacity:1;stroke:#000000;stroke-width:0.7548877;stroke-opacity:0.6"
       id="text858">
      <path
         d="m 5.5079914,12.317001 -0.2886338,1.465371 h 7.4822764 c -1.332156,4.729154 -4.2184782,7.793102 -10.0799642,10.3464 l 0.6882806,1.487575 C 10.5702,22.374767 13.678548,18.067474 14.833083,12.317001 Z M 19.295805,10.163349 15.521366,28.280654 h 1.820613 l 3.774439,-18.117305 z"
         style="font-style:italic;font-size:22.20259857px;fill:url(#radialGradient903);fill-opacity:1;stroke:#000000;stroke-width:0.7548877;stroke-opacity:0.6"
         id="path835"
         inkscape:connector-curvature="0"
         sodipodi:nodetypes="cccccccccccc" />
    </g>
    <path
       style="font-style:italic;font-variant:normal;font-weight:normal;font-stretch:normal;font-size:22.20259857px;line-height:1.25;font-family:'Droid Sans';-inkscape-font-specification:'Droid Sans';letter-spacing:0px;word-spacing:0px;fill:#ffffff;fill-opacity:1;stroke:none;stroke-width:1;stroke-opacity:0.6;opacity:0.2"
       d="M 26.087891 2.5 L 21.087891 26.5 L 21.400391 26.5 L 26.087891 4 L 28.1875 4 L 28.5 2.5 L 26.087891 2.5 z M 7.8242188 5.3535156 L 7.4414062 7.2949219 L 7.7363281 7.2949219 L 7.8242188 6.8535156 L 19.833984 6.8535156 C 19.960099 6.3616221 20.073628 5.862318 20.175781 5.3535156 L 7.8242188 5.3535156 z M 16.867188 8.7949219 C 14.924636 14.218398 11.124122 17.89669 4 21 L 4.5742188 22.238281 C 11.946989 18.907489 15.633722 14.900189 17.353516 8.7949219 L 16.867188 8.7949219 z "
       transform="matrix(0.7498326,0,0,0.75997688,-0.39521652,8.3319237)"
       id="path852" />
  </g>
</svg>
